assets/images/sprites/elf.svg

<svg height="314" viewBox="0 0 314.5 314" width="314.5" xmlns="http://www.w3.org/2000/svg"><path d="m0 0h140.87 173.63" fill="#5400e7"/><path d="m314.5 314h-188.38-126.12" fill="#5400e7"/><path d="m234.07 118.08-76.94-76.94-77 77-72.8-37.49 33.79 76.35 116 115.87 116.16-115.87 33.89-76.55zm-154.89 27.05-13-5.75 13 20.61v13.69l-20.11-17-20.07-40.4 40.21 20.3zm173.7 11.55-20.1 17v-13.47l13-20.83-13 5.75v-8.55l40.22-20.3z" fill="#fff"/></svg>

<svg xmlns="http://www.w3.org/2000/svg" width="314.5" height="314" viewBox="0 0 314.5 314"><defs><style>.a876c2ea-4efa-4daa-964f-09be28d5b753{fill:#5400e7;}.a7cd0133-a0f8-4b52-9947-644c9a7afb33{fill:#fff;}</style></defs><g id="ebaf7763-bf6d-4080-a61f-ed1699c114b1" data-name="Layer 2"><g id="a5a6ebd6-c9e0-4e11-8c8b-c7244f70129b" data-name="Layer 1"><polyline class="a876c2ea-4efa-4daa-964f-09be28d5b753" points="0 0 140.87 0 314.5 0"/><polyline class="a876c2ea-4efa-4daa-964f-09be28d5b753" points="314.5 314 126.12 314 0 314"/><g id="a515fde2-9e4f-4ed5-b4d4-e65ea527a254" data-name="Elf"><path class="a7cd0133-a0f8-4b52-9947-644c9a7afb33" d="M234.07,118.08,157.13,41.14l-77,77L7.33,80.65,41.12,157l116,115.87L273.28,157l33.89-76.55ZM79.18,145.13l-13-5.75,13,20.61v13.69l-20.11-17L39,116.28l40.21,20.3Zm173.7,11.55-20.1,17V160.21l13-20.83-13,5.75v-8.55L273,116.28Z"/></g></g></g></svg>
